assets/media/img/advantages-21.svg

<svg width="40" height="40" viewBox="0 0 40 40" fill="none" xmlns="http://www.w3.org/2000/svg">
<path d="M28.5 20C28.5 24.0671 27.5099 27.725 25.9352 30.3494C24.3546 32.9837 22.2407 34.5 20 34.5C17.7593 34.5 15.6454 32.9837 14.0648 30.3494C12.4901 27.725 11.5 24.0671 11.5 20C11.5 15.9329 12.4901 12.275 14.0648 9.65065C15.6454 7.01629 17.7593 5.5 20 5.5C22.2407 5.5 24.3546 7.01629 25.9352 9.65065C27.5099 12.275 28.5 15.9329 28.5 20Z" stroke="#46403C"/>
<path d="M20 26.5C15.9141 26.5 12.2394 25.7261 9.60484 24.4967C6.92972 23.2483 5.5 21.6233 5.5 20C5.5 18.3767 6.92972 16.7517 9.60484 15.5033C12.2394 14.2739 15.9141 13.5 20 13.5C24.0859 13.5 27.7606 14.2739 30.3952 15.5033C33.0703 16.7517 34.5 18.3767 34.5 20C34.5 21.6233 33.0703 23.2483 30.3952 24.4967C27.7606 25.7261 24.0859 26.5 20 26.5Z" stroke="#46403C"/>
<circle cx="20" cy="20" r="18.5" stroke="#46403C"/>
<circle cx="20" cy="20" r="1.5" stroke="#46403C"/>
<path d="M21 -4.37114e-08C21.5523 -1.95703e-08 22 0.447715 22 1L22 2L18 2L18 1C18 0.447715 18.4477 -1.55275e-07 19 -1.31134e-07L21 -4.37114e-08Z" fill="#46403C"/>
<path d="M19 40C18.4477 40 18 39.5523 18 39L18 38L22 38L22 39C22 39.5523 21.5523 40 21 40L19 40Z" fill="#46403C"/>
<path d="M40 21C40 21.5523 39.5523 22 39 22L38 22L38 18L39 18C39.5523 18 40 18.4477 40 19L40 21Z" fill="#46403C"/>
<path d="M-5.56363e-08 19C-2.49092e-08 18.4477 0.447715 18 1 18L2 18L2 22L1 22C0.447715 22 -1.97636e-07 21.5523 -1.66909e-07 21L-5.56363e-08 19Z" fill="#46403C"/>
<rect x="1" y="19.5" width="5" height="1" fill="#46403C"/>
<rect x="34" y="19.5" width="5" height="1" fill="#46403C"/>
<rect x="20.5" y="1" width="5" height="1" transform="rotate(90 20.5 1)" fill="#46403C"/>
<rect x="20.5" y="34" width="5" height="1" transform="rotate(90 20.5 34)" fill="#46403C"/>
</svg>

<svg width="40" height="40" fill="none" xmlns="http://www.w3.org/2000/svg"><path d="M28.5 20c0 4.067-.99 7.725-2.565 10.35-1.58 2.634-3.694 4.15-5.935 4.15-2.24 0-4.355-1.516-5.935-4.15C12.49 27.724 11.5 24.066 11.5 20c0-4.067.99-7.725 2.565-10.35C15.645 7.017 17.759 5.5 20 5.5c2.24 0 4.355 1.516 5.935 4.15C27.51 12.276 28.5 15.934 28.5 20z" stroke="#46403C"/><path d="M20 26.5c-4.086 0-7.76-.774-10.395-2.003C6.93 23.248 5.5 21.623 5.5 20c0-1.623 1.43-3.248 4.105-4.497C12.239 14.273 15.915 13.5 20 13.5c4.086 0 7.76.774 10.395 2.003C33.07 16.752 34.5 18.377 34.5 20c0 1.623-1.43 3.248-4.105 4.497C27.761 25.727 24.085 26.5 20 26.5z" stroke="#46403C"/><circle cx="20" cy="20" r="18.5" stroke="#46403C"/><circle cx="20" cy="20" r="1.5" stroke="#46403C"/><path d="M21 0a1 1 0 011 1v1h-4V1a1 1 0 011-1h2zm-2 40a1 1 0 01-1-1v-1h4v1a1 1 0 01-1 1h-2zm21-19a1 1 0 01-1 1h-1v-4h1a1 1 0 011 1v2zM0 19a1 1 0 011-1h1v4H1a1 1 0 01-1-1v-2z" fill="#46403C"/><path fill="#46403C" d="M1 19.5h5v1H1zm33 0h5v1h-5zM20.5 1v5h-1V1zm0 33v5h-1v-5z"/></svg>
